X: 29684
T: Not Safe With A Razor
R: reel
M: 4/4
K: Adorian
A2 ed eABE|EGGB edBG|A ~g3 a z ge|d ~B3 E/F/GFD|
EBed eABE|EGGB edBG|A/B/deg az ge|1 dBGA BedB:|2 dBGA B ~A3||
|:e ~a3 bz ag|e ~g3 agbg|egge a2 ge|dBGA B ~A3|
a2 ea gedB|~G2 B/c/d eedB|eaae gedB|1 ~G2 dB BAB/c/d:|2 ~G2dB BA A2||

